X: 1
T:Handkerchief Dance, Bonnets So Blue, Evesham
M:6/8
L:1/8
C:Trad.
S:Dommett
A:Evesham
P:A(ABC)8
B:Dommett, p. 22, 43
K:F
P:A
C|F3  AcA|F3- F2C|F3  AcA|G3-G2C|
F3  AcA|F2C C2d|cBA GDE|F3-F2G||
P:B
G3  GAG|C3- C2G|G3  GAB|c3-c2B|
A2G F2E|D2E F2G|ABA GFE|D3-D2E||
P:C
C|F3  AcA|F3- F2C|F3  AcA|G6    |
A3  F3 |B3  d3 |cAF GFE|F3-F2 ||
